!!!COM: Martinů, Bohuslav (Jan)
!!!OTL: Etudes and Polkas, Sixteen Pieces for Piano
!!!OMV: Book III, No. 4: Polka in A
!!!example: 477
!!!work: Mau-83
**kern	**kern
*part1	*part1
*staff2	*staff1
*I"Piano	*
*I'Pno.	*
*clefF4	*clefG2
*k[]	*k[]
*C:	*C:
*M2/4	*M2/4
*MM121	*MM121
=44	=44
(4A 4c#X 4e	8a'L
.	8a'J
4F#X) 4d 4e	8b'L
.	(8ddJ
=45	=45
(4A 4c#X 4e	8cc#X'L)
.	8cc#'J
4F#X~) 4d 4e	8ddL
.	(8ff#XJ
=46	=46
8A 8c#X 8e	8ee')
4A~ 4cn 4fn	4ffn~ 4aa
(8G 8B-X 8e	(8gg 8bb-X
=47	=47
4A~) 4c 4f	4ff) 4aa
4A~ 4c 4f	4dd~ 4ff
=48	=48
4G~ 4c#X 4e	(8ee 8gg
.	4dd) 4ff
4A~ 4d 4f	.
.	[8ff [8aa
=49	=49
4A~ 4cn 4f	8ffL] 8aa]
.	(8ggJ 8bb-X
4G~ 4B-X 4e	4ff) 4aa
=50	=50
4A~ 4c 4f	4dd~ 4ff
4A~ 4d 4f	(8eeL 8gg
.	[8ddJ) [8ff
=	=
*-	*-
!!!system-decoration: {(s1,s2)}
!!!CDT: 1890/12/08-1959/08/28
!!!CBL: Polička, Bohemia
!!!CDL: Liestal, Switzerland
!!!CNT: Czech
!!!AGN: Instrumental; Keyboard
!!!MCN:
!!!MDT: 1946/01/18
!!!MGN:
!!!MLC: New York, New York, United States of America
!!!MPD: 1946
!!!MPN: Firkušny, Rudolf
!!!ODT: 1945
!!!PDT: 1946
!!!excerpt-start-measure: 44
!!!excerpt-end-measure: 48
!!!excerpt-start-time: 0:49
!!!excerpt-end-time: 0:53
!!!EEV: 2020/01/25
!!!ONB: Converted from MusicXML on 2020/01/25
